misc/icons/Mountain/32x32/apps/com.github.gi_lom.dialect.svg

<svg xmlns="http://www.w3.org/2000/svg" width="32" height="32" version="1.1">
 <path style="opacity:0.2" d="m 21.133565,23.464777 c 0.187756,0.46581 0.141763,0.964859 -0.537043,1.333858 l -2.216964,1.600629 c -0.397546,0.194868 -1.074086,1.067086 0,1.587078 -0.913591,-0.118797 -1.107652,-0.765928 -1.342609,-1.320306 l -4.296347,-11.471177 6.781833,4.268345 z"/>
 <path style="opacity:0.2" d="M 15.962863,10 H 29.10566 C 30.155633,10 31,10.832363 31,11.86741 V 26.132591 C 31,27.167638 30.155633,28 29.10566,28 H 18.64808 c -0.537044,0 -0.888431,-0.158204 -1.208348,-0.52941 z"/>
 <path style="fill:#e4e4e4" d="M 15.962863,9 H 29.10566 C 30.155633,9 31,9.832363 31,10.86741 V 25.132591 C 31,26.167638 30.155633,27 29.10566,27 H 18.64808 c -0.537044,0 -0.888431,-0.158204 -1.208348,-0.52941 z"/>
 <path style="opacity:0.1" d="m 21.807384,15.376765 -0.873743,-0.04898 c 0.0094,0.263645 -0.0094,0.497075 -0.0493,0.809705 -0.01993,0.165689 -0.05874,0.680018 -0.09755,0.933237 h -0.167826 c -0.597891,0 -1.344703,-0.06878 -1.864965,-0.156312 l 0.01049,0.760726 c 0.569562,0.04898 1.187376,0.09796 1.864964,0.09796 h 0.0094 c -0.245445,1.101473 -0.637739,2.504512 -1.138075,3.478921 l 0.725841,0.263646 c 0.0986,-0.175069 0.186706,-0.31159 0.304181,-0.458528 0.657664,-0.770089 1.738061,-1.515232 2.905405,-1.515232 1.148549,0 1.747487,0.910835 1.747487,1.631945 0,1.61002 -2.198522,1.990356 -4.475721,1.677753 l 0.205585,0.78052 c 2.984083,0.311589 5.075599,-0.438706 5.075599,-2.477027 0,-1.131698 -0.913592,-2.275958 -2.474375,-2.275958 -1.020597,0 -1.903765,0.58883 -2.757718,1.183849 0.205586,-0.556459 0.431112,-1.490567 0.608362,-2.309635 1.246103,-0.04898 2.748052,-0.205289 3.896788,-0.409548 l -0.0094,-0.740906 c -1.207301,0.262602 -2.591853,0.399117 -3.740508,0.448097 0.0493,-0.21467 0.07867,-0.709204 0.108037,-0.855075 0.05874,-0.263644 0.108037,-0.565848 0.186706,-0.819068 z m 3.680628,-0.341788 -0.520261,0.224045 c 0.265375,0.361609 0.598938,0.955576 0.795066,1.355733 l 0.53076,-0.233425 C 26.09743,15.981173 25.733468,15.386139 25.488012,15.034961 Z m 1.089822,-0.389727 -0.52026,0.224046 c 0.274804,0.360568 0.598937,0.917027 0.815016,1.345328 l 0.529714,-0.242804 c -0.186706,-0.361609 -0.569562,-0.966007 -0.824443,-1.326576 z"/>
 <path style="fill:#ffffff;opacity:0.2" d="M 15.962891 9 L 16.046875 10 L 29.105469 10 C 30.155442 10 31 10.832141 31 11.867188 L 31 10.867188 C 31 9.8321405 30.155442 9 29.105469 9 L 15.962891 9 z"/>
 <path style="fill:#6b6a6e" d="m 21.807384,14.676765 -0.873743,-0.04898 c 0.0094,0.263645 -0.0094,0.497075 -0.0493,0.809705 -0.01993,0.165689 -0.05874,0.680018 -0.09755,0.933237 h -0.167826 c -0.597891,0 -1.344703,-0.06878 -1.864965,-0.156312 l 0.01049,0.760726 c 0.569562,0.04898 1.187376,0.09796 1.864964,0.09796 h 0.0094 c -0.245445,1.101473 -0.637739,2.504512 -1.138075,3.478921 l 0.725841,0.263646 c 0.0986,-0.175069 0.186706,-0.31159 0.304181,-0.458528 0.657664,-0.770089 1.738061,-1.515232 2.905405,-1.515232 1.148549,0 1.747487,0.910835 1.747487,1.631945 0,1.61002 -2.198522,1.990356 -4.475721,1.677753 l 0.205585,0.78052 c 2.984083,0.311589 5.075599,-0.438706 5.075599,-2.477027 0,-1.131698 -0.913592,-2.275958 -2.474375,-2.275958 -1.020597,0 -1.903765,0.58883 -2.757718,1.183849 0.205586,-0.556459 0.431112,-1.490567 0.608362,-2.309635 1.246103,-0.04898 2.748052,-0.205289 3.896788,-0.409548 l -0.0094,-0.740906 c -1.207301,0.262602 -2.591853,0.399117 -3.740508,0.448097 0.0493,-0.21467 0.07867,-0.709204 0.108037,-0.855075 0.05874,-0.263644 0.108037,-0.565848 0.186706,-0.819068 z m 3.680628,-0.341788 -0.520261,0.224045 c 0.265375,0.361609 0.598938,0.955576 0.795066,1.355733 l 0.53076,-0.233425 C 26.09743,15.281173 25.733468,14.686139 25.488012,14.334961 Z m 1.089822,-0.389727 -0.52026,0.224046 c 0.274804,0.360568 0.598937,0.917027 0.815016,1.345328 l 0.529714,-0.242804 c -0.186706,-0.361609 -0.569562,-0.966007 -0.824443,-1.326576 z"/>
 <path style="fill:#7d45a8" d="m 21.133565,22.464777 c 0.187756,0.46581 0.141763,0.964859 -0.537043,1.333858 l -2.216964,1.600629 c -0.397546,0.194868 -1.074086,1.067086 0,1.587078 -0.913591,-0.118797 -1.107652,-0.765928 -1.342609,-1.320306 l -4.296347,-11.471177 6.781833,4.268345 z"/>
 <path style="opacity:0.2" d="M 3.8941524,5.0239949 14.06871,5.0000927 c 1.049971,-0.00247 1.515671,0.926991 1.89434,1.8921269 C 16.589243,8.684918 21.264286,23.793024 21.264286,23.793024 21.048209,23.337852 20.52792,23 19.990877,23 H 3.8943404 C 2.8443666,23 2,22.165837 2,21.130338 V 6.8920342 C 2,5.8565356 2.8443666,4.9999073 3.8943404,4.9999073 Z"/>
 <path style="fill:#cd50dc" d="M 3.8941524,4.0239949 14.06871,4.0000927 c 1.049971,-0.00247 1.515671,0.926991 1.89434,1.8921269 C 16.589243,7.684918 21.264286,22.793024 21.264286,22.793024 21.048209,22.337852 20.52792,22 19.990877,22 H 3.8943404 C 2.8443666,22 2,21.165837 2,20.130338 V 5.8920342 C 2,4.8565356 2.8443666,3.9999073 3.8943404,3.9999073 Z"/>
 <g style="opacity:0.2" transform="matrix(0.2682609,0,0,0.25069837,6.3796467,18)">
  <path d="m 2.3125,0 h 11.328 c 8.2656,0 14.766,-6.1406 14.766,-13.875 0,-7.8594 -6.5,-14.047 -14.766,-14.047 H 2.3125 Z m 11.172,-21.938665 c 4.3906,0 7.466572,3.595265 7.466572,8.064065 0,4.375 -3.097892,7.4224401 -7.466572,7.8913142 H 9.7679285 V -21.938765 Z"/>
 </g>
 <g style="fill:#e8b3e9" transform="matrix(0.2682609,0,0,0.25069837,6.3796467,17)">
  <path d="m 2.3125,0 h 11.328 c 8.2656,0 14.766,-6.1406 14.766,-13.875 0,-7.8594 -6.5,-14.047 -14.766,-14.047 H 2.3125 Z m 11.172,-21.938665 c 4.3906,0 7.466572,3.595265 7.466572,8.064065 0,4.375 -3.097892,7.4224401 -7.466572,7.8913142 H 9.7679285 V -21.938765 Z"/>
 </g>
 <path style="fill:#ffffff;opacity:0.2" d="M 3.8945312 4 C 2.8445575 4 2 4.8570795 2 5.8925781 L 2 6.8925781 C 2 5.8570795 2.8445575 5 3.8945312 5 L 3.8945312 5.0234375 L 14.068359 5 C 15.11833 4.99753 15.584222 5.9274422 15.962891 6.8925781 C 16.527358 8.5085638 20.032702 19.823808 20.787109 22.259766 C 20.991569 22.398719 21.162714 22.580298 21.263672 22.792969 C 21.263672 22.792969 16.589084 7.6852765 15.962891 5.8925781 C 15.584222 4.9274422 15.11833 3.99753 14.068359 4 L 3.8945312 4.0234375 L 3.8945312 4 z"/>
</svg>

<svg xmlns="http://www.w3.org/2000/svg" width="32" height="32" version="1.1">
 <path style="opacity:0.2" d="M 21.134,23.465 C 21.321,23.931 21.275,24.43 20.597,24.799 L 18.38,26.399 C 17.982,26.594 17.305,27.466 18.38,27.986 17.466,27.868 17.272,27.22 17.037,26.666 L 12.741,15.195 19.522,19.463 Z"/>
 <path style="opacity:0.2" d="M 15.963,10 H 29.106 C 30.156,10 31,10.832 31,11.867 V 26.133 C 31,27.168 30.156,28 29.106,28 H 18.648 C 18.111,28 17.76,27.842 17.44,27.471 Z"/>
 <path style="fill:#e4e4e4" d="M 15.963,9 H 29.106 C 30.156,9 31,9.8324 31,10.867 V 25.133 C 31,26.168 30.156,27 29.106,27 H 18.648 C 18.111,27 17.76,26.842 17.44,26.471 Z"/>
 <path style="opacity:0.1" d="M 21.807,15.377 20.934,15.328 C 20.943,15.591 20.924,15.825 20.884,16.137 20.864,16.303 20.826,16.818 20.787,17.071 H 20.619 C 20.021,17.071 19.274,17.002 18.754,16.914 L 18.764,17.675 C 19.334,17.724 19.952,17.773 20.629,17.773 H 20.639 C 20.393,18.875 20.001,20.278 19.501,21.252 L 20.227,21.516 C 20.325,21.341 20.413,21.204 20.531,21.057 21.188,20.287 22.269,19.542 23.436,19.542 24.585,19.542 25.184,20.453 25.184,21.174 25.184,22.784 22.985,23.164 20.708,22.852 L 20.914,23.632 C 23.898,23.944 25.989,23.193 25.989,21.155 25.989,20.023 25.076,18.879 23.515,18.879 22.494,18.879 21.611,19.468 20.757,20.063 20.963,19.507 21.188,18.572 21.365,17.753 22.612,17.704 24.113,17.548 25.262,17.344 L 25.253,16.603 C 24.046,16.866 22.661,17.002 21.512,17.051 21.562,16.836 21.591,16.342 21.62,16.196 21.679,15.932 21.728,15.63 21.807,15.377 Z M 25.488,15.035 24.968,15.259 C 25.233,15.621 25.567,16.215 25.763,16.615 L 26.294,16.381 C 26.097,15.981 25.733,15.386 25.488,15.035 Z M 26.578,14.645 26.058,14.869 C 26.332,15.23 26.657,15.786 26.873,16.215 L 27.402,15.972 C 27.216,15.61 26.833,15.006 26.578,14.645 Z"/>
 <path style="opacity:0.2;fill:#ffffff" d="M 15.963,9 16.047,10 H 29.105 C 30.155,10 31,10.832 31,11.867 V 10.867 C 31,9.8321 30.155,9 29.105,9 Z"/>
 <path style="fill:#6b6a6e" d="M 21.807,14.677 20.934,14.628 C 20.943,14.891 20.924,15.125 20.884,15.437 20.864,15.603 20.826,16.118 20.787,16.371 H 20.619 C 20.021,16.371 19.274,16.302 18.754,16.214 L 18.764,16.975 C 19.334,17.024 19.952,17.073 20.629,17.073 H 20.639 C 20.393,18.175 20.001,19.578 19.501,20.552 L 20.227,20.816 C 20.325,20.641 20.413,20.504 20.531,20.357 21.188,19.587 22.269,18.842 23.436,18.842 24.585,18.842 25.184,19.753 25.184,20.474 25.184,22.084 22.985,22.464 20.708,22.152 L 20.914,22.932 C 23.898,23.244 25.989,22.493 25.989,20.455 25.989,19.323 25.076,18.179 23.515,18.179 22.494,18.179 21.611,18.768 20.757,19.363 20.963,18.807 21.188,17.872 21.365,17.053 22.612,17.004 24.113,16.848 25.262,16.644 L 25.253,15.903 C 24.046,16.166 22.661,16.302 21.512,16.351 21.562,16.136 21.591,15.642 21.62,15.496 21.679,15.232 21.728,14.93 21.807,14.677 Z M 25.488,14.335 24.968,14.559 C 25.233,14.921 25.567,15.515 25.763,15.915 L 26.294,15.681 C 26.097,15.281 25.733,14.686 25.488,14.335 Z M 26.578,13.945 26.058,14.169 C 26.332,14.53 26.657,15.086 26.873,15.515 L 27.402,15.272 C 27.216,14.91 26.833,14.306 26.578,13.945 Z"/>
 <path style="fill:#1d7a4f" d="M 21.134,22.465 C 21.321,22.931 21.275,23.43 20.597,23.799 L 18.38,25.399 C 17.982,25.594 17.305,26.466 18.38,26.986 17.466,26.868 17.272,26.22 17.037,25.666 L 12.741,14.195 19.522,18.463 Z"/>
 <path style="opacity:0.2" d="M 3.8942,5.024 14.069,5.0001 C 15.119,4.9976 15.584,5.9271 15.963,6.8922 16.589,8.6849 21.264,23.793 21.264,23.793 21.048,23.338 20.528,23 19.991,23 H 3.8943 C 2.8444,23 2,22.166 2,21.13 V 6.892 C 2,5.8565 2.8444,4.9999 3.8943,4.9999 Z"/>
 <path style="fill:#33d17a" d="M 3.8942,4.024 14.069,4.0001 C 15.119,3.9976 15.584,4.9271 15.963,5.8922 16.589,7.6849 21.264,22.793 21.264,22.793 21.048,22.338 20.528,22 19.991,22 H 3.8943 C 2.8444,22 2,21.166 2,20.13 V 5.892 C 2,4.8565 2.8444,3.9999 3.8943,3.9999 Z"/>
 <path style="opacity:0.2" d="M 7,18 H 10.039 C 12.256,18 14,16.461 14,14.522 14,12.551 12.256,11 10.039,11 H 7 Z M 9.9971,12.5 C 11.175,12.5 12,13.401 12,14.522 12,15.618 11.169,16.382 9.9971,16.5 H 8.9999 V 12.5 Z"/>
 <path style="fill:#ffffff" d="M 7,17 H 10.039 C 12.256,17 14,15.461 14,13.522 14,11.551 12.256,10 10.039,10 H 7 Z M 9.9971,11.5 C 11.175,11.5 12,12.401 12,13.522 12,14.618 11.169,15.382 9.9971,15.5 H 8.9999 V 11.5 Z"/>
 <path style="opacity:0.2;fill:#ffffff" d="M 3.8945,4 C 2.8446,4 2,4.8571 2,5.8926 V 6.8926 C 2,5.8571 2.8446,5 3.8945,5 V 5.0234 L 14.068,5 C 15.118,4.9975 15.584,5.9274 15.963,6.8926 16.527,8.5086 20.033,19.824 20.787,22.26 20.992,22.399 21.163,22.58 21.264,22.793 21.264,22.793 16.589,7.6853 15.963,5.8926 15.584,4.9274 15.118,3.9975 14.068,4 L 3.8945,4.0234 Z"/>
</svg>
